assets/logos/greenly.svg

<svg width="248" height="248" viewBox="0 0 248 248" fill="none" xmlns="http://www.w3.org/2000/svg">
<rect width="248" height="248" rx="53" fill="#00533C"/>
<path d="M125.058 64C125.826 64.5998 130.9 78.0708 131.834 80.124C126.691 82.1738 121.483 83.3457 116.068 84.3672C120.466 88.6768 124.046 91.9333 124.129 98.54C124.195 103.864 122.291 107.897 118.614 111.663C107.055 123.501 91.2169 122.906 75.9317 123.127C72.4981 123.177 65.4146 123.066 62.8877 125.768C62.3478 126.345 62.0003 127.089 62.0762 127.894C62.1368 128.533 62.4799 129.032 62.9854 129.406C72.4288 136.392 105.649 126.737 123.939 141.022C128.244 144.384 130.61 149.145 131.246 154.531C131.893 160.013 130.661 165.812 127.211 170.181C123.554 174.812 116.002 178.698 110.398 180.33C106.672 181.415 102.823 181.969 98.9766 182.413C89.284 184.226 67.5409 182.911 57.8926 180.22C52.9259 178.708 42.9215 174.324 40.6036 169.269C35.2134 157.511 44.945 151.838 53.1612 147.239C51.6882 146.651 50.2674 145.94 48.9141 145.112C41.5453 140.706 35.7962 133.552 41.0088 124.535C43.4906 120.242 51.5819 115.459 56.4073 114.372C46.3427 108.593 43.3435 96.4592 47.9922 86.5283C55.989 69.4459 81.0819 71.955 96.4688 70.7656C105.933 70.034 116.106 67.458 124.716 64.0664L125.058 64ZM102.677 155.406C98.6637 152.285 84.7791 151.978 79.8037 152.575C75.8742 152.885 69.2091 153.267 66.5088 156.466C65.8434 157.253 65.5211 158.273 65.6153 159.3C65.7413 160.76 66.8535 162.997 67.9893 163.75C73.0851 167.13 85.4065 166.657 91.2246 166.479C95.9982 165.958 105.115 165.748 104.668 158.435C104.594 157.218 103.594 156.072 102.677 155.406ZM100.024 95.334C99.4096 87.546 89.9179 85.9444 83.6827 86.4561C77.8145 86.8469 69.1123 88.7423 69.5577 96.4189C69.7031 98.7201 70.7437 100.873 72.4561 102.417C75.7306 105.328 82.2804 105.872 86.4795 105.748C90.3981 105.557 95.0869 105.063 97.8604 101.949C99.4495 100.129 100.231 97.7415 100.024 95.334Z" fill="#FEFEFE"/>
<path d="M140.251 71.2002L141.123 71.1973C148.038 71.1883 153.958 71.3893 159.158 76.6349C163.568 81.0836 164.529 85.9203 164.53 91.9397C164.51 95.5647 164.466 99.221 164.492 102.843L164.483 158.507L140.245 158.491C139.965 136.081 140.35 113.6 140.194 91.1826C140.148 84.5471 140.144 77.8303 140.251 71.2002Z" fill="#FEFEFE"/>
<path d="M164.53 91.9396C165.517 89.8752 166.06 87.8403 167.074 85.8198C170.012 79.9658 175.184 74.9356 181.432 72.7416C188.099 70.4004 195.767 70.7961 202.188 73.7535C204.458 74.7995 206.694 76.4934 208.625 78.0673C207.184 81.1332 205.506 84.8527 203.644 87.6483C199.485 93.8907 192.213 98.606 185.276 101.166C179.081 103.453 171.157 102.876 164.492 102.843C164.466 99.221 164.51 95.5647 164.53 91.9396Z" fill="#00D556"/>
</svg>

<svg xmlns="http://www.w3.org/2000/svg" width="248" height="248" fill="none" viewBox="0 0 248 248"><rect width="248" height="248" fill="#00533c" rx="53"/><path fill="#fefefe" d="M125.058 64c.768.6 5.842 14.07 6.776 16.124-5.143 2.05-10.351 3.222-15.766 4.243 4.398 4.31 7.978 7.566 8.061 14.173.066 5.324-1.838 9.357-5.515 13.123-11.559 11.838-27.397 11.243-42.682 11.464-3.434.05-10.517-.061-13.044 2.641-.54.577-.888 1.321-.812 2.126.06.639.404 1.138.91 1.512 9.443 6.986 42.663-2.669 60.953 11.616 4.305 3.362 6.671 8.123 7.307 13.509.647 5.482-.585 11.281-4.035 15.65-3.657 4.631-11.209 8.517-16.813 10.149-3.726 1.085-7.575 1.639-11.421 2.083-9.693 1.813-31.436.498-41.084-2.193-4.967-1.512-14.971-5.896-17.29-10.951-5.39-11.758 4.342-17.431 12.558-22.03a28 28 0 0 1-4.247-2.127c-7.369-4.406-13.118-11.56-7.905-20.577 2.482-4.293 10.573-9.076 15.398-10.163-10.064-5.779-13.063-17.913-8.415-27.844 7.997-17.082 33.09-14.573 48.477-15.762 9.464-.732 19.637-3.308 28.247-6.7zm-22.381 91.406c-4.013-3.121-17.898-3.428-22.873-2.831-3.93.31-10.595.692-13.295 3.891a3.84 3.84 0 0 0-.894 2.834c.126 1.46 1.239 3.697 2.374 4.45 5.096 3.38 17.417 2.907 23.236 2.729 4.773-.521 13.89-.731 13.443-8.044-.074-1.217-1.074-2.363-1.991-3.029m-2.653-60.072c-.614-7.788-10.106-9.39-16.341-8.878-5.869.39-14.57 2.286-14.125 9.963a8.83 8.83 0 0 0 2.898 5.998c3.275 2.911 9.824 3.455 14.023 3.331 3.92-.191 8.608-.685 11.381-3.799a8.9 8.9 0 0 0 2.164-6.615M140.251 71.2l.872-.003c6.915-.009 12.835.192 18.035 5.438 4.41 4.449 5.371 9.285 5.372 15.305-.02 3.625-.064 7.281-.038 10.903l-.009 55.664-24.238-.016c-.28-22.41.105-44.891-.051-67.308-.046-6.636-.05-13.353.057-19.983"/><path fill="#00d556" d="M164.53 91.94c.987-2.065 1.53-4.1 2.544-6.12 2.938-5.854 8.11-10.884 14.358-13.078 6.667-2.342 14.335-1.946 20.756 1.011 2.27 1.046 4.506 2.74 6.437 4.314-1.441 3.066-3.119 6.786-4.981 9.581-4.159 6.243-11.431 10.958-18.368 13.518-6.195 2.287-14.119 1.71-20.784 1.677-.026-3.622.018-7.278.038-10.903"/></svg>
